modules/hawcons-filled/icons/document-file-doc.svg

<?xml version="1.0" encoding="UTF-8" standalone="no"?>
<svg width="32px" height="32px" viewBox="0 0 32 32" version="1.1" xmlns="http://www.w3.org/2000/svg" xmlns:xlink="http://www.w3.org/1999/xlink" xmlns:sketch="http://www.bohemiancoding.com/sketch/ns">
    <!-- Generator: Sketch 3.0.3 (7891) - http://www.bohemiancoding.com/sketch -->
    <title>icon 94 document file doc</title>
    <desc>Created with Sketch.</desc>
    <defs></defs>
    <g id="Page-1" stroke="none" stroke-width="1" fill="none" fill-rule="evenodd" sketch:type="MSPage">
        <g id="icon-94-document-file-doc" sketch:type="MSArtboardGroup" fill="#929292">
            <path d="M21,26 L21,28.0025781 C21,29.1090746 20.1057238,30 19.0025781,30 L3.99742191,30 C2.89092539,30 2,29.1012878 2,27.9926701 L2,5.00732994 C2,3.89833832 2.8992496,3 4.0085302,3 L14,3 L14,9.00189865 C14,10.1132936 14.8980806,11 16.0059191,11 L21,11 L21,13 L12.0068483,13 C10.3462119,13 9,14.3422643 9,15.9987856 L9,23.0012144 C9,24.6573979 10.3359915,26 12.0068483,26 L21,26 L21,26 Z M15,3 L15,8.99707067 C15,9.55097324 15.4509752,10 15.990778,10 L21,10 L15,3 L15,3 Z M11.9945615,14 C10.8929956,14 10,14.9001762 10,15.992017 L10,23.007983 C10,24.1081436 10.9023438,25 11.9945615,25 L29.0054385,25 C30.1070044,25 31,24.0998238 31,23.007983 L31,15.992017 C31,14.8918564 30.0976562,14 29.0054385,14 L11.9945615,14 L11.9945615,14 Z M12,16 L12,23 L14.9951185,23 C16.102384,23 17,22.1134452 17,20.9940809 L17,18.0059191 C17,16.8980806 16.1061002,16 14.9951185,16 L12,16 L12,16 Z M13,17 L13,22 L15.0010434,22 C15.5527519,22 16,21.5562834 16,21.0001925 L16,17.9998075 C16,17.4476291 15.5573397,17 15.0010434,17 L13,17 L13,17 Z M20.0048815,16 C18.897616,16 18,16.8865548 18,18.0059191 L18,20.9940809 C18,22.1019194 18.8938998,23 20.0048815,23 L20.9951185,23 C22.102384,23 23,22.1134452 23,20.9940809 L23,18.0059191 C23,16.8980806 22.1061002,16 20.9951185,16 L20.0048815,16 L20.0048815,16 Z M19.9989566,17 C19.4472481,17 19,17.4437166 19,17.9998075 L19,21.0001925 C19,21.5523709 19.4426603,22 19.9989566,22 L21.0010434,22 C21.5527519,22 22,21.5562834 22,21.0001925 L22,17.9998075 C22,17.4476291 21.5573397,17 21.0010434,17 L19.9989566,17 L19.9989566,17 Z M28.9999916,21 C28.9968339,22.1165689 28.1004316,23 26.9951185,23 L26.0048815,23 C24.8938998,23 24,22.1019194 24,20.9940809 L24,18.0059191 C24,16.8865548 24.897616,16 26.0048815,16 L26.9951185,16 C28.1041209,16 28.9968142,16.8948834 28.9999915,18 L28,18 C28,17.4476291 27.5573397,17 27.0010434,17 L25.9989566,17 C25.4472481,17 25,17.4437166 25,17.9998075 L25,21.0001925 C25,21.5523709 25.4426603,22 25.9989566,22 L27.0010434,22 C27.5527519,22 28,21.5562834 28,21.0001925 L28.9999923,21 L28.9999916,21 L28.9999916,21 Z" id="document-file-doc" sketch:type="MSShapeGroup"></path>
        </g>
    </g>
</svg>

<svg width="32" height="32" viewBox="0 0 32 32" xmlns="http://www.w3.org/2000/svg"><path d="M21 26v2.003A1.995 1.995 0 0 1 19.003 30H3.997A2 2 0 0 1 2 27.993V5.007C2 3.898 2.9 3 4.009 3H14v6.002c0 1.111.898 1.998 2.006 1.998H21v2h-8.993A3.003 3.003 0 0 0 9 15.999V23A2.996 2.996 0 0 0 12.007 26H21zM15 3v5.997c0 .554.451 1.003.99 1.003H21l-6-7zm-3.005 11C10.893 14 10 14.9 10 15.992v7.016A2 2 0 0 0 11.995 25h17.01C30.107 25 31 24.1 31 23.008v-7.016A2 2 0 0 0 29.005 14h-17.01zM12 16v7h2.995A1.998 1.998 0 0 0 17 20.994v-2.988A2.003 2.003 0 0 0 14.995 16H12zm1 1v5h2.001A.997.997 0 0 0 16 21v-3c0-.552-.443-1-.999-1H13zm7.005-1A1.998 1.998 0 0 0 18 18.006v2.988c0 1.108.894 2.006 2.005 2.006h.99A1.998 1.998 0 0 0 23 20.994v-2.988A2.003 2.003 0 0 0 20.995 16h-.99zm-.006 1A.997.997 0 0 0 19 18v3c0 .552.443 1 .999 1h1.002A.997.997 0 0 0 22 21v-3c0-.552-.443-1-.999-1h-1.002zM29 21c-.003 1.117-.9 2-2.005 2h-.99A2.003 2.003 0 0 1 24 20.994v-2.988c0-1.12.898-2.006 2.005-2.006h.99c1.11 0 2.002.895 2.005 2h-1c0-.552-.443-1-.999-1h-1.002A.997.997 0 0 0 25 18v3c0 .552.443 1 .999 1h1.002A.997.997 0 0 0 28 21h1z" fill="#929292" fill-rule="evenodd"/></svg>
